public/icons/bedroom-icon.svg

<svg width="22" height="18" viewBox="0 0 22 18" fill="none" xmlns="http://www.w3.org/2000/svg">
<g clip-path="url(#clip0_122_2006)">
<path d="M11.0119 15.9597C8.01369 15.9597 5.01627 15.9597 2.01806 15.9597C1.71493 15.9597 1.57479 16.0984 1.57479 16.3977C1.57479 16.4752 1.57872 16.5527 1.574 16.6295C1.5677 16.7225 1.55825 16.8155 1.54093 16.9062C1.47637 17.2372 1.15907 17.5023 0.779568 17.4984C0.398493 17.4946 0.0827672 17.2116 0.025291 16.8481C0.0119061 16.7628 0.00482004 16.6752 0.00482004 16.5891C0.00403269 14.8279 -0.00777748 13.0659 0.00875676 11.3046C0.0182049 10.2783 0.397705 9.38527 1.12521 8.64186C1.56691 8.19069 2.09207 7.86976 2.69282 7.66511C3.16522 7.50465 3.65338 7.45581 4.15098 7.45581C8.76246 7.45736 13.3739 7.45348 17.9854 7.45891C19.3365 7.46046 20.4309 7.9969 21.2419 9.06356C21.6403 9.58837 21.8781 10.1845 21.9592 10.8357C21.9867 11.055 21.9985 11.2783 21.9993 11.5C22.0025 13.2101 22.0017 14.9202 22.0009 16.6302C22.0009 16.8977 21.934 17.1411 21.7104 17.3178C21.4741 17.5046 21.2104 17.5535 20.9293 17.4395C20.66 17.3295 20.49 17.1271 20.4514 16.838C20.4317 16.6922 20.4341 16.5426 20.4301 16.3953C20.4238 16.1574 20.3238 16.0139 20.1239 15.9698C20.0798 15.9597 20.0333 15.9605 19.9876 15.9605C16.9965 15.9605 14.0054 15.9605 11.0135 15.9605L11.0119 15.9597Z" fill="white"/>
<path d="M10.9025 0.5C12.8472 0.5 14.7912 0.5 16.7351 0.5C17.3862 0.5 17.9949 0.643411 18.52 1.03953C19.1956 1.54884 19.59 2.21938 19.6231 3.06124C19.6514 3.77519 19.6388 4.4907 19.642 5.20543C19.6444 5.66589 19.642 6.12636 19.642 6.58682C19.642 6.62791 19.6396 6.67132 19.6286 6.71085C19.5948 6.83566 19.5263 6.88527 19.3971 6.86124C19.2562 6.83488 19.12 6.77829 18.979 6.76279C18.6476 6.72713 18.3153 6.70233 17.9823 6.68527C17.7602 6.67364 17.6917 6.63411 17.6602 6.41938C17.5595 5.73876 16.9194 5.12636 16.1005 5.13566C15.1872 5.14574 14.2739 5.13798 13.3613 5.13798C12.6819 5.13798 12.1016 5.53643 11.8709 6.16434C11.8378 6.25426 11.8252 6.35194 11.8079 6.44651C11.7756 6.61628 11.7119 6.67984 11.5402 6.68217C11.1804 6.68605 10.8198 6.68605 10.46 6.68217C10.2946 6.68062 10.2293 6.61628 10.1994 6.42791C10.1576 6.16357 10.0537 5.92791 9.88364 5.72093C9.57579 5.34574 9.17739 5.14186 8.68609 5.13953C7.74363 5.13488 6.80118 5.13721 5.85794 5.13876C5.06587 5.13953 4.44623 5.74884 4.34545 6.41783C4.31317 6.63411 4.24782 6.67209 4.02579 6.68605C3.6581 6.71008 3.29041 6.74419 2.92351 6.78295C2.81092 6.79457 2.70305 6.84264 2.59125 6.86124C2.47078 6.88062 2.41488 6.84031 2.38103 6.72403C2.36764 6.67829 2.36134 6.62946 2.36134 6.5814C2.36055 5.47674 2.3456 4.37209 2.36449 3.26744C2.38418 2.11163 2.92666 1.26202 3.988 0.748062C4.40844 0.545736 4.86431 0.5 5.3257 0.5C7.18462 0.5 9.04354 0.5 10.9025 0.5Z" fill="white"/>
</g>
<defs>
<clipPath id="clip0_122_2006">
<rect width="22" height="17" fill="white" transform="translate(0 0.5)"/>
</clipPath>
</defs>
</svg>

<svg xmlns="http://www.w3.org/2000/svg" width="22" height="18" fill="none"><g fill="#fff" clip-path="url(#a)"><path d="M11.012 15.96H2.018c-.303 0-.443.138-.443.438 0 .077.004.155-.001.232a2 2 0 0 1-.033.276c-.065.331-.382.596-.761.592a.774.774 0 0 1-.755-.65 2 2 0 0 1-.02-.259c-.001-1.761-.013-3.523.004-5.284.01-1.027.389-1.92 1.116-2.663a3.9 3.9 0 0 1 1.568-.977c.472-.16.96-.21 1.458-.21 4.611.002 9.223-.002 13.834.004 1.352.001 2.446.538 3.257 1.605.398.524.636 1.12.717 1.772q.041.33.04.664.005 2.565.002 5.13c0 .268-.067.511-.29.688-.237.187-.5.235-.782.121a.73.73 0 0 1-.478-.601c-.02-.146-.017-.295-.02-.443q-.009-.358-.307-.425c-.044-.01-.09-.01-.136-.01h-8.976M10.903.5h5.832c.651 0 1.26.143 1.785.54.676.509 1.07 1.18 1.103 2.021.028.714.016 1.43.019 2.144q.002.69 0 1.382a.5.5 0 0 1-.013.124c-.034.125-.103.174-.232.15-.14-.026-.277-.083-.418-.098q-.497-.052-.997-.078c-.222-.011-.29-.05-.322-.266-.1-.68-.74-1.293-1.56-1.283-.913.01-1.826.002-2.739.002-.68 0-1.26.398-1.49 1.026-.033.09-.046.188-.063.283-.032.17-.096.233-.268.235q-.54.006-1.08 0c-.165-.001-.23-.066-.26-.254a1.45 1.45 0 0 0-.316-.707c-.308-.375-.707-.58-1.198-.581q-1.413-.006-2.828-.001c-.792 0-1.412.61-1.513 1.279-.032.216-.097.254-.32.268q-.551.037-1.101.097c-.113.012-.22.06-.333.078-.12.02-.176-.02-.21-.137a.5.5 0 0 1-.02-.143c0-1.104-.015-2.209.003-3.314.02-1.155.563-2.005 1.624-2.519C4.408.546 4.864.5 5.326.5z"/></g><defs><clipPath id="a"><path fill="#fff" d="M0 .5h22v17H0z"/></clipPath></defs></svg>
